X:1
T:Estudi per a clarinet
T:Jordi Hortal
T:en La♭ Major
%%score 1 { ( 2 4 ) | 3 }
L:1/8
Q:1/4=144
M:4/4
K:Gb
V:1 treble transpose=-2 nm="Clarinet en Si♭" snm="Cl. Si♭"
V:2 bass nm="Piano" snm="Pno."
V:4 bass 
V:3 bass-8 
V:1
[K:Ab]"^Allegro" z8 | z8 |!f! .A2 .a2 e/f/e/=d/ e/f/e/d/ | .e.f.g.a .b.c'.b.a | %4
 f2 f2 f/e/d/e/ f/e/d/e/ | .f.g.a.b .a.g.f.=d | e/f/e/!>!a/ e/f/e/!>!c'/ e/f/e/!>!a/ e/f/e/!>!c'/ | %7
 Te'4 e'/d'/b/g/ e/d/B/G/ | A4 z4 | z8 | A,C/E/ A/c/e/a/ .c'.=b._b.a | %11
 c'/a/e/c/ A/E/C/A,/ E3/2F/4G/4 A2 | F/A/d/f/ a/f/d/A/ .d.e.=e.f | a/f/d/A/ d/f/d/A/ .F.A.d.=d | %14
 e2 e2 A/c/e/c/ A/c/e/a/ | Tg6- g3/2f/4g/4 | a4 z4 | z8 | (e4 e4 | a2 g2 e4) | (f4 f4 | %21
 a2 g2 f2 f2) | (e4 a4 | e4 b4 | a4) z4 | z8 | z8 | z8 | .F2 .f2 a/g/f/=e/ f/e/f/g/ | %29
 .a.g.f.=e .f._e.d.c | B2 B2 B/c/d/c/ B/c/d/c/ | .B.c.d.e .f.g.a.g | c'4 a/f/c/A/ .F.D | %33
 .C2 .G2 T=e7/2 =d/4e/4 | f4 z4 | z8 | F,A,/C/ F/A/c/f/ .a.g.f.=e | %37
 !>!f/e/d/c/ !>!d/c/B/A/ !>!B/A/G/F/ !>!G/F/=E/F/ | BF/D/ B/F/d/B/ .f.e.d.c | %39
 B/F/B/d/ f/B/d/f/ .b.a.g.b | a2 a2 a/g/f/=e/ f/g/a/b/ | c'4 T=e7/2 =d/4e/4 | f4 z4 | z8 | (f4 f4 | %45
 a2 g2 f4) | (b4 f4 | d'2 b2 f4) | (f4 a4 | g4 c'4 | f4) z4 | z8 | z8 | z8 | z8 | z8 | z8 | z8 | %58
 z8 | z8 | z8 ||[Q:1/4=50]!mf![Q:1/4=71]"^Adagio" c2 cc e2 d2 | c6 c2 | d2 de f2 d2 | efed c2 d2 | %65
 e2 e/f/e/=d/ e2 e/f/e/d/ | eBcd e=ef_e || %67
[Q:1/4=140]!f![Q:1/4=144]"^Allegro" .A2 .a2 e/f/e/=d/ e/f/e/d/ | .e.f.g.a .b.c'.b.a | %69
 f2 f2 f/e/d/e/ f/e/d/e/ | .f.g.a.b .a.g.f.=d | e/f/e/!>!a/ e/f/e/!>!c'/ e/f/e/!>!a/ e/f/e/!>!c'/ | %72
 Te'6- e'3/2=d'/4e'/4 | [aa']4 z4 | z8 | z8 | z8 |] %77
V:2
 z .[D,G,B,] z .[D,G,B,] z .[D,F,C] z .[D,F,C] | z .[D,G,B,] z .[D,G,B,] z .[D,F,C] z .[D,F,C] | %2
 z .[D,G,B,] z .[D,G,B,] z .[D,G,B,] z .[D,G,B,] | %3
 z .[D,G,B,] z .[D,G,B,] z .[D,G,B,] z .[__D,G,B,] | z .[E,G,C] z .[E,G,C] z .[E,G,C] z .[E,G,C] | %5
 z .[E,G,C] z .[E,G,C] z .[E,G,C] z .[E,G,=C] | z .[D,G,B,] z .[D,G,B,] z .[D,G,B,] z .[D,G,B,] | %7
 z .[D,F,C] z .[D,F,C] z .[D,F,C] z .[D,F,C] | z .[D,G,B,] z .[D,G,B,] z .[D,F,C] z .[D,F,C] | %9
 z .[D,G,B,] z .[D,G,B,] z .[D,F,C] z .[D,F,C] | z .[D,G,B,] z .[D,G,B,] z .[D,G,B,] z .[D,G,B,] | %11
 z .[D,G,B,] z .[D,G,B,] z .[D,G,B,] z .[__D,G,B,] | z .[E,G,C] z .[E,G,C] z .[E,G,C] z .[E,G,C] | %13
 z .[E,G,C] z .[E,G,C] z .[E,G,C] z .[E,G,=C] | z .[D,G,B,] z .[D,G,B,] z .[D,G,B,] z .[D,G,B,] | %15
 z .[D,F,C] z .[D,F,C] z .[D,F,C] z .[D,F,C] | z .[D,G,B,] z .[D,G,B,] z .[D,F,C] z .[D,F,C] | %17
 z .[D,G,B,] z .[D,G,B,] z .[D,F,C] z .[D,F,C] | z .[D,G,B,] z .[D,G,B,] z .[D,G,B,] z .[D,G,B,] | %19
 z .[D,G,B,] z .[D,G,B,] z .[D,G,B,] z .[__D,G,B,] | z .[E,G,C] z .[E,G,C] z .[E,G,C] z .[E,G,C] | %21
 z .[E,G,C] z .[E,G,C] z .[E,G,C] z .[E,G,=C] | z .[D,G,B,] z .[D,G,B,] z .[D,G,B,] z .[D,G,B,] | %23
 z .[D,F,C] z .[D,F,C] z .[D,F,C] z .[D,F,C] | z .[D,G,B,] z .[D,G,B,] z .[D,F,C] z .[D,F,C] | %25
 z .[D,G,B,] z .[D,G,B,] z .[D,F,C] z .[=D,F,B,] | %26
 z .[B,,E,G,] z .[B,,E,G,] z .[B,,=D,A,] z .[B,,D,A,] | %27
 z .[B,,E,G,] z .[B,,E,G,] z .[B,,=D,A,] z .[B,,D,A,] | %28
 z .[B,,E,G,] z .[B,,E,G,] z .[B,,E,G,] z .[B,,E,G,] | %29
 z .[B,,E,G,] z .[B,,E,G,] z .[B,,E,G,] z .[=A,,E,=G,] | %30
 z .[C,E,A,] z .[C,E,A,] z .[C,E,A,] z .[C,E,A,] | %31
 z .[C,E,A,] z .[C,E,A,] z .[C,E,A,] z .[=C,E,=A,] | %32
 z .[B,,E,G,] z .[B,,E,G,] z .[B,,E,G,] z .[B,,E,G,] | %33
 z .[B,,=D,A,] z .[B,,D,A,] z .[B,,D,A,] z .[B,,D,A,] | %34
 z .[B,,E,G,] z .[B,,E,G,] z .[B,,=D,A,] z .[B,,D,A,] | %35
 z .[B,,E,G,] z .[B,,E,G,] z .[B,,=D,A,] z .[B,,D,A,] | %36
 z .[B,,E,G,] z .[B,,E,G,] z .[B,,E,G,] z .[B,,E,G,] | %37
 z .[B,,E,G,] z .[B,,E,G,] z .[B,,E,G,] z .[=A,,E,=G,] | %38
 z .[C,E,A,] z .[C,E,A,] z .[C,E,A,] z .[C,E,A,] | %39
 z .[C,E,A,] z .[C,E,A,] z .[C,E,A,] z .[=C,E,=A,] | %40
 z .[B,,E,G,] z .[B,,E,G,] z .[B,,E,G,] z .[B,,E,G,] | %41
 z .[B,,=D,A,] z .[B,,D,A,] z .[B,,D,A,] z .[B,,D,A,] | %42
 z .[B,,E,G,] z .[B,,E,G,] z .[B,,=D,A,] z .[B,,D,A,] | %43
 z .[B,,E,G,] z .[B,,E,G,] z .[B,,=D,A,] z .[B,,D,A,] | %44
 z .[B,,E,G,] z .[B,,E,G,] z .[B,,E,G,] z .[B,,E,G,] | %45
 z .[B,,E,G,] z .[B,,E,G,] z .[B,,E,G,] z .[=A,,E,=G,] | %46
 z .[C,E,A,] z .[C,E,A,] z .[C,E,A,] z .[C,E,A,] | %47
 z .[C,E,A,] z .[C,E,A,] z .[C,E,A,] z .[=C,E,=A,] | %48
 z .[B,,E,G,] z .[B,,E,G,] z .[B,,E,G,] z .[B,,E,G,] | %49
 z .[B,,=D,A,] z .[B,,D,A,] z .[B,,D,A,] z .[B,,D,A,] | %50
 z .[B,,E,G,] z .[B,,E,G,] z .[B,,=D,A,] z .[B,,D,A,] | %51
 z .[B,,E,G,] z .[B,,E,G,] z .[D,F,A,] z .[D,F,C] | (B,4 B,4 | D2 C2 B,2 A,2) | (G,4 G,4 | %55
 C2 B,2 A,2 G,2) | (B,4 G,4 | F,4 A,4 | G,4) z4 | z .[D,G,B,] z .[D,G,B,] z .[D,F,C] z .[D,F,C] | %60
 .[D,G,B,] z z2 [F,A,C]4 || [D,G,B,]4 [D,G,B,]4 | [D,G,B,]4 [D,G,B,]4 | [E,G,C]4 [E,G,C]4 | %64
 [E,G,C]4 [E,G,C]4 | [D,G,B,]4 [D,G,B,]4 | [D,F,C]4 [D,F,C]2 [D,F,C]2 || %67
 z .[D,G,B,] z .[D,G,B,] z .[D,G,B,] z .[D,G,B,] | %68
 z .[D,G,B,] z .[D,G,B,] z .[D,G,B,] z .[__D,G,B,] | z .[E,G,C] z .[E,G,C] z .[E,G,C] z .[E,G,C] | %70
 z .[E,G,C] z .[E,G,C] z .[E,G,C] z .[E,G,=C] | z .[D,G,B,] z .[D,G,B,] z .[D,G,B,] z .[D,G,B,] | %72
 z .[D,F,C] z .[D,F,C] z .[D,F,C] z .[D,F,C] | z .[D,G,B,] z .[D,G,B,] z .[D,F,C] z .[D,F,C] | %74
 z .[D,G,B,] z .[D,G,B,] z .[D,F,C] z .[D,F,C] | .[D,G,B,] z z2 !>![A,CDF] z z2 | %76
 !>![G,B,DG] z z2 z4 |] %77
V:3
!mf! .[G,,G,] z .[B,,B,] z .[A,,A,] z .[D,,D,].[F,,F,] | %1
 .[G,,G,] z .[B,,B,] z .[A,,A,] z .[D,,D,].[F,,F,] | .[G,,G,] z .[D,,D,] z .[G,,G,] z .[D,,D,] z | %3
 .[G,,G,] z .[D,,D,] z .[G,,G,] z .[D,,D,].[__D,,__D,] | %4
 .[C,,C,] z .[G,,G,] z .[C,,C,] z .[G,,G,] z | %5
 .[C,,C,] z .[G,,G,] z .[C,,C,] z .[C,,C,].[=C,,=C,] | %6
 .[D,,D,] z .[D,,D,] z .[D,,D,] z .[D,,D,] z | .[D,,D,] z .[A,,A,] z .[D,,D,] z .[A,,A,].[D,,D,] | %8
 .[G,,G,] z .[B,,B,] z .[A,,A,] z .[D,,D,].[F,,F,] | %9
 .[G,,G,] z .[B,,B,] z .[A,,A,] z .[D,,D,].[F,,F,] | .[G,,G,] z .[D,,D,] z .[G,,G,] z .[D,,D,] z | %11
 .[G,,G,] z .[D,,D,] z .[G,,G,] z .[D,,D,].[__D,,__D,] | %12
 .[C,,C,] z .[G,,G,] z .[C,,C,] z .[G,,G,] z | %13
 .[C,,C,] z .[G,,G,] z .[C,,C,] z .[C,,C,].[=C,,=C,] | %14
 .[D,,D,] z .[D,,D,] z .[D,,D,] z .[D,,D,] z | .[D,,D,] z .[A,,A,] z .[D,,D,] z .[A,,A,].[D,,D,] | %16
 .[G,,G,] z .[B,,B,] z .[A,,A,] z .[D,,D,].[F,,F,] | %17
 .[G,,G,] z .[B,,B,] z .[A,,A,] z .[D,,D,].[F,,F,] | .[G,,G,] z .[D,,D,] z .[G,,G,] z .[D,,D,] z | %19
 .[G,,G,] z .[D,,D,] z .[G,,G,] z .[D,,D,].[__D,,__D,] | %20
 .[C,,C,] z .[G,,G,] z .[C,,C,] z .[G,,G,] z | %21
 .[C,,C,] z .[G,,G,] z .[C,,C,] z .[C,,C,].[=C,,=C,] | %22
 .[D,,D,] z .[D,,D,] z .[D,,D,] z .[D,,D,] z | .[D,,D,] z .[A,,A,] z .[D,,D,] z .[A,,A,].[D,,D,] | %24
 .[G,,G,] z .[B,,B,] z .[A,,A,] z .[D,,D,].[F,,F,] | %25
 .[G,,G,] z .[B,,B,] z .[A,,A,] z .[D,,D,].[B,,,B,,] | %26
 .[E,,E,] z .[G,,G,] z .[F,,F,] z .[B,,,B,,].[=D,,=D,] | %27
 .[E,,E,] z .[G,,G,] z .[F,,F,] z .[B,,,B,,].[=D,,=D,] | %28
 .[E,,E,] z .[B,,,B,,] z .[E,,E,] z .[B,,,B,,] z | %29
 .[E,,E,] z .[B,,,B,,] z .[E,,E,] z .[B,,B,].[=A,,=A,] | %30
 .[A,,A,] z .[E,,E,] z .[A,,A,] z .[E,,E,] z | %31
 .[A,,A,] z .[E,,E,] z .[A,,A,] z .[A,,A,].[=A,,=A,] | %32
 .[B,,B,] z .[B,,,B,,] z .[B,,,B,,] z .[B,,,B,,] z | %33
 .[B,,,B,,] z .[F,,F,] z .[B,,,B,,] z .[F,,F,].[B,,,B,,] | %34
 .[E,,E,] z .[G,,G,] z .[F,,F,] z .[B,,,B,,].[=D,,=D,] | %35
 .[E,,E,] z .[G,,G,] z .[F,,F,] z .[B,,,B,,].[=D,,=D,] | %36
 .[E,,E,] z .[B,,,B,,] z .[E,,E,] z .[B,,,B,,] z | %37
 .[E,,E,] z .[B,,,B,,] z .[E,,E,] z .[B,,B,].[=A,,=A,] | %38
 .[A,,A,] z .[E,,E,] z .[A,,A,] z .[E,,E,] z | %39
 .[A,,A,] z .[E,,E,] z .[A,,A,] z .[A,,A,].[=A,,=A,] | %40
 .[B,,B,] z .[B,,,B,,] z .[B,,,B,,] z .[B,,,B,,] z | %41
 .[B,,,B,,] z .[F,,F,] z .[B,,,B,,] z .[F,,F,].[B,,,B,,] | %42
 .[E,,E,] z .[G,,G,] z .[F,,F,] z .[B,,,B,,].[=D,,=D,] | %43
 .[E,,E,] z .[G,,G,] z .[F,,F,] z .[B,,,B,,].[=D,,=D,] | %44
 .[E,,E,] z .[B,,,B,,] z .[E,,E,] z .[B,,,B,,] z | %45
 .[E,,E,] z .[B,,,B,,] z .[E,,E,] z .[B,,B,].[=A,,=A,] | %46
 .[A,,A,] z .[E,,E,] z .[A,,A,] z .[E,,E,] z | %47
 .[A,,A,] z .[E,,E,] z .[A,,A,] z .[A,,A,].[=A,,=A,] | %48
 .[B,,B,] z .[B,,,B,,] z .[B,,,B,,] z .[B,,,B,,] z | %49
 .[B,,,B,,] z .[F,,F,] z .[B,,,B,,] z .[F,,F,].[B,,,B,,] | %50
 .[E,,E,] z .[G,,G,] z .[F,,F,] z .[B,,,B,,].[=D,,=D,] | %51
 .[E,,E,] z .[G,,G,] z .[F,,F,] z .[A,,A,].[D,,D,] | %52
!f! .[G,,G,] z .[D,,D,] z .[G,,G,] z .[D,,D,] z | %53
 .[G,,G,] z .[D,,D,] z .[G,,G,] z .[D,,D,].[__D,,__D,] | %54
 .[C,,C,] z .[G,,G,] z .[C,,C,] z .[G,,G,] z | %55
 .[C,,C,] z .[G,,G,] z .[C,,C,] z .[C,,C,].[=C,,=C,] | %56
 .[D,,D,] z .[D,,D,] z .[D,,D,] z .[D,,D,] z | .[D,,D,] z .[A,,A,] z .[D,,D,] z .[A,,A,].[D,,D,] | %58
 .[G,,G,] z .[B,,B,] z .[A,,A,] z .[D,,D,].[F,,F,] | %59
 .[G,,G,] z .[B,,B,] z .[A,,A,] z .[D,,D,].[F,,F,] | .[G,,G,] z z2 [D,,D,]4 || %61
!mp! G,,G,G,,G, G,,G,G,,G, | G,,G,G,,G, G,,G,F,,F, | E,,E,D,,D, C,,C,C,,C, | %64
 C,,C,C,,C, C,,C,C,,C, | D,,D,D,,D, D,,D,D,,D, | D,,D,D,,D, D,,D,D,,D, || %67
!mf! .[G,,G,] z .[D,,D,] z .[G,,G,] z .[D,,D,] z | %68
 .[G,,G,] z .[D,,D,] z .[G,,G,] z .[D,,D,].[__D,,__D,] | %69
 .[C,,C,] z .[G,,G,] z .[C,,C,] z .[G,,G,] z | %70
 .[C,,C,] z .[G,,G,] z .[C,,C,] z .[C,,C,].[=C,,=C,] | %71
 .[D,,D,] z .[D,,D,] z .[D,,D,] z .[D,,D,] z | .[D,,D,] z .[A,,A,] z .[D,,D,] z .[A,,A,].[D,,D,] | %73
!f! .[G,,G,] z .[B,,B,] z .[A,,A,] z .[D,,D,].[F,,F,] | %74
 .[G,,G,] z .[B,,B,] z .[A,,A,] z .[D,,D,].[F,,F,] | .[G,,G,] z z2 !>![D,,D,] z z2 | %76
 !>![G,,G,] z z2 z4 |] %77
V:4
 x8 | x8 | x8 | x8 | x8 | x8 | x8 | x8 | x8 | x8 | x8 | x8 | x8 | x8 | x8 | x8 | x8 | x8 | x8 | %19
 x8 | x8 | x8 | x8 | x8 | x8 | x8 | x8 | x8 | x8 | x8 | x8 | x8 | x8 | x8 | x8 | x8 | x8 | x8 | %38
 x8 | x8 | x8 | x8 | x8 | x8 | x8 | x8 | x8 | x8 | x8 | x8 | x8 | x8 | %52
 z .[D,G,] z .[D,G,] z .[D,G,] z .[D,G,] | z .[D,G,] z .[D,G,] z .[D,G,] z .[__D,G,] | %54
 z .[C,E,] z .[C,E,] z .[C,E,] z .[C,E,] | z .[C,E,] z .[C,E,] z .[C,E,] z .[=C,E,] | %56
 z .[D,G,] z .[D,G,] z .[D,G,] z .[D,G,] | z .[C,D,] z .[C,D,] z .[C,D,] z .[C,D,] | %58
 z .[D,G,] z .[D,G,] z .[D,F,] z .[D,F,] | x8 | x8 || x8 | x8 | x8 | x8 | x8 | x8 || x8 | x8 | x8 | %70
 x8 | x8 | x8 | x8 | x8 | x8 | x8 |] %77

